!!!id: BC035
!!!page: 46
!!!COM: Anonymous (folklore)
!!!PTL@@FR: Les 100 plus belles chansons
!!!OTL@@FR: J'entends le moulin
!!!PUB: La Bonne Chanson, inc.
!!!YEM: On ne peut reproduire, enregistrer ou diffuser en tout ou en partie le présent ouvrage, sous quelque procédé que ce soit, électronique, mécanique, photographique, sonore, magnétique ou autre, sans avoir obtenu au préalable l'autorisation écrite de l'éditrice.
!!!PDT: 2011
!!!SMA: 2012 Bibliothèque nationale du Québec; Biblothèque nationale du Canada
!!!AGN-Laforte: Chanson strophique (avec refrain), 9:2(8); possible altetrnative interpretation as chanson en laisse, with rhyming half-lines
!!!AGN-type: Chanson de métier
!!!AGN-rime: monorhyme, /ɔ/
**kern	**text
*k[b-e-]	*
*g:	*
!!LO:TX:a:t=[segno]:cj:fs=small
!!LO:TX:a:B:t=Allegro
*M2/4	*
*	*v:1
*>Refrain	*>Refrain
*	*pline:R1
!!LO:TX:b:B:t=Refrain
8b-	J'en-
16a	-tends
16b-	le
=1	=1
8g	mou-
8g	-lin,
*	*italic
16d	ti-
16d	-que,
16d	ti-
16d	-que,
!!LO:PB:g=original
=2	=2
8g	ta-
8g	-que,
*	*Xitalic
*	*pline:R1r
8b-	J'en-
16a	-tends
16b-	le
=3	=3
8g	mou-
8g	-lin
*	*italic
4d	ta-
=4	=4
!!LO:TX:a:B:t=FIN
4g	-que.
*	*Xitalic
=||	=||
*	*pline:1
8b-	Mon
16a	pèr[e]
16b-	a
!!LO:PB:g=original
=5	=5
8g	fait
8g	bâ-
8d	-tir
8d	mai-
=6	=6
4g	son,
*	*rp:ɔ̃
*	*rf:zɔ̃
*	*rs:a1
*	*refrain
*	*italic
8b-	J'en-
16a	-tends
16b-	le
=7	=7
8g	mou-
8g	-lin
4d	ta-
=8	=8
8g	-que,
*	*Xitalic
*	*Xrefrain
8r	.
*	*pline:2
8g	L'a
16g	fait
16a	bâ-
!!LO:PB:g=original
=9	=9
8b-	-tir
8a	à
8b-	trois
8cc	pi-
=10	=10
8dd	-gnons,
*	*rp:ɔ
*	*rf:ɲɔ
*	*rs:a2
*	*refrain
*	*italic
16b-	ti-
16cc	-que,
4dd	ti-
=11	=11
8cc	-que,
16b-	ti-
16cc	-que,
4dd	ta-
=12	=12
8cc	-que.
*	*Xitalic
*	*Xrefrain

8r	.
!!LO:TX:a:t=[segno]:cj:fs=small
==	==
!!!EED: Ève Poudrier
!!!EEV: 2025/June/10
